X: 10118
T: WORM IN THE FIDDLE!
C: Bob McQuillen 27 Aug 90
B: Bob's Note Book 10 #118
%R: jig
Z: 2018 John Chambers <jc:trillian.mit.edu>
M: 6/8
L: 1/8
K: Am
E \
| AEA cAc | eag e2d | cAc ede | cAc GEG \
| AEA cAc | eag e2d | cde dBG | A3- A2 :|
|: g \
| gag ece | gag e2d | cde dcG | AGE Gce \
| gag ece | gag e2a | gec BAG | A3- A2 :|
%%begintext align
%% Well, at
%% least the worm _holes_ were there,
%% so there musta been a worm -
%% (and it was April's fiddle, too!)
%%endtext

%%sep 1 1 500

%%sep 1 1 500

